icons/1_Primary/Notejoy.svg

<svg width="1024" height="1024" viewBox="0 0 1024 1024" fill="none" xmlns="http://www.w3.org/2000/svg">
<g clip-path="url(#clip0_2_2973)">
<path d="M512 1024C794.77 1024 1024 794.77 1024 512C1024 229.23 794.77 0 512 0C229.23 0 0 229.23 0 512C0 794.77 229.23 1024 512 1024Z" fill="#FF837D"/>
<path d="M697.49 290.18C705.42 290.11 713.34 290.27 721.27 290.09C721.59 322.65 721.27 355.24 721.4 387.81C721.353 503.177 721.33 618.547 721.33 733.92C713.38 733.77 705.43 733.92 697.48 733.84C697.487 585.947 697.49 438.06 697.49 290.18ZM462.21 363.92C441.56 379.13 425.02 399.23 411.4 420.81V344.93H302.91C302.763 459.19 302.66 573.443 302.6 687.69H411.38C411.45 623.22 411.28 558.75 411.46 494.28C416.683 485.996 422.397 478.032 428.57 470.43C438.69 457.91 450.09 446.23 463.43 437.1C474.28 429.65 486.6 424.1 499.68 422.1C510.48 420.54 522.16 420.77 531.9 426.23C541.27 431.35 547.44 440.79 550.79 450.71C556.55 467.34 556.29 485.17 556.19 502.53V687.7H664.75V489.83C664.62 473.56 665.3 457.25 663.5 441.05C661.5 423.37 656.8 405.8 648.08 390.2C637.79 371.67 621.92 356.11 602.69 347.04C588.34 340.17 572.49 336.86 556.69 336.1C538.402 335.044 520.075 337.37 502.63 342.96C488.121 347.737 474.474 354.813 462.21 363.92Z" fill="white"/>
</g>
<defs>
<clipPath id="clip0_2_2973">
<rect width="1024" height="1024" fill="white"/>
</clipPath>
</defs>
</svg>

<svg xmlns="http://www.w3.org/2000/svg" width="1024" height="1024" fill="none">
   <g clip-path="url(#a)">
      <path fill="#FF837D" d="M512 1024c282.77 0 512-229.23 512-512S794.77 0 512 0 0 229.23 0 512s229.23 512 512 512Z"/>
      <path fill="#fff" d="M697.49 290.18c7.93-.07 15.85.09 23.78-.09.32 32.56 0 65.15.13 97.72-.047 115.367-.07 230.737-.07 346.11-7.95-.15-15.9 0-23.85-.08.007-147.893.01-295.78.01-443.66Zm-235.28 73.74c-20.65 15.21-37.19 35.31-50.81 56.89v-75.88H302.91c-.147 114.26-.25 228.513-.31 342.76h108.78c.07-64.47-.1-128.94.08-193.41a245.797 245.797 0 0 1 17.11-23.85c10.12-12.52 21.52-24.2 34.86-33.33 10.85-7.45 23.17-13 36.25-15 10.8-1.56 22.48-1.33 32.22 4.13 9.37 5.12 15.54 14.56 18.89 24.48 5.76 16.63 5.5 34.46 5.4 51.82V687.7h108.56V489.83c-.13-16.27.55-32.58-1.25-48.78-2-17.68-6.7-35.25-15.42-50.85-10.29-18.53-26.16-34.09-45.39-43.16-14.35-6.87-30.2-10.18-46-10.94a149.011 149.011 0 0 0-54.06 6.86 142.595 142.595 0 0 0-40.42 20.96Z"/>
   </g>
   <defs>
      <clipPath id="a">
         <path fill="#fff" d="M0 0h1024v1024H0z"/>
      </clipPath>
   </defs>
</svg>
